!!!OTL: 575. Reiters Morgenlied.
!!!COM: Volksweise
!!!ODT: 1827
!!!ARE: Europa, Mitteleuropa, Deutschland
!!!SCT: B0575
!!!TXL: @@DE
!!!YEM: Copyright 1995, estate of Helmut Schaffrath.
**kern	**text
*ICvox	*
*Ivox	*
*clefG2	*
*M3/4	*
*k[f#]	*
*G:	*
!LO:TX:a:t=Mäßig langsam.	!
{8.d	Mor-
16b	-gen,
=1	=1
(<4b	roth.
4a)	.
8.d	Mor-
16cc	-gen-
=2	=2
(4cc	-roth.
4b)}	.
{8g	leuch-
8b	-teſt
=3	=3
4.dd	mir
8b	ʒum
8cc	frü-
8a	-hen
=4	=4
(4a	Tod?
4g)	.
4r}	.
=5	=5
{8.g	Bald
16b	wird
8b	die
8b	Trom-
8b	-pe-
8dd	-te
=6	=6
8.ddL	bla-
16ccJ	.
4a	-ſen:
4r}	.
=7	=7
{8.a	dann
16cc	muß
8cc	ich
8cc	mein
8cc	Le-
8ee	-ben
=8	=8
8.eeL	laſ-
16ddJ	.
4b}	-ſen,
{8g	ich
8b	und
=9	=9
4.dd	man-
8b	-cher
8cc	Ka-
8a	-me-
=10	=10
(4a	-rad!
4g)	.
4r}	.
=11	=11
{8.g	Bald
16b	wird
8b	die
8b	Trom-
8b	-pe-
8dd	-te
=12	=12
8.ddL	bla-
16ccJ	.
4a	-ſen:
4r}	.
=13	=13
{8.a	dann
16cc	muß
8cc	ich
8cc	mein
8cc	Le-
8ee	-ben
=14	=14
8.eeL	laſ-
16ddJ	.
4b}	-ſen,
{8g	ich
8b	und
=15	=15
4.dd	man-
8b	-cher
8cc	Ka-
8a	-me-
=16	=16
(4a	-rad!
4g)}	.
==	==
!!!AGN: Staende -, Soldaten - Lied
!!!GTL: Soldatenlieder
!!!ONB: ESAC (Essen Associative Code) Database: BOEHME
!!!AMT: simple triple
!!!AIN: vox
!!!EED: Helmut Schaffrath
!!!EEV: 1.0
!!!RDF**kern: < = below
!!Volksweiſe des 18. Jahrh. Dieſe Form ſeit 1827.
!!@@COMMENT:"Gedicht von Wilhelm Hauff 1824. Ʒuerſt in "Kriegs- und Volkslieder. Stuttgart 1824.
!!S. 84. Jſt eine Umdichtung des aus dem 18. Jahrh. ſtammenden Volksliedes: "Gut gedacht,
!!aller Freud' ein End' gemacht" (ſ. Liederhort JJ, 522 oder Wolfram, Naſſ. VL. S. 212). Das
!!Volkslied ſelbſt iſt wieder ein umgemodeltes Lied von G. Chr. Günther 1745: Wie gedacht" rc. -
!!Die ſchwäbiſche Melodieform daʒu bei Silcher JJ, Nr. 2 (1825/26). Sie hat ʒu Anfang des 1. und
!!2. Taktes Terʒenſprung ſtatt Sekunde. Die beſſere und weitverbreitete Form (wie hier) ſteht mit
!! Hauff's Texte zuerst in Serig's "Auswahl". Leipzig 1827. S. 360."
!!@@END:
!!!Text: W. Hauff
!!!URL-scan: https://archive.org/details/BoehmeVtLieder1895/page/n457/mode/2up
!!!ENC: Anna Maria Matuszewska
!!!EEV: 2024/12/07
*-	*-
